!!!!SEGMENT: pl-kk--kk-i-2--020_lheritier-jean--magnificat-quarti-toni-a-voce-pari.krn
!!!cenid: 16xx:1633
!!!COM: Lhéritier, Jean
!!!COM-rismid: pe30012541
!!!CDT: ~1480-~1552
!!!CNT: French-Flemish
!!!OTL: [Magnificat] Quarti Toni a voce pari
!!!PDT:
!!!AGN: Sacred
!!!SMS-siglum: PL-Kk
!!!SMS-shelfmark: Kk.I.2
!!!SMS-shelfwork: 020 W
!!!NIFC-rismid: 300258036
!!!URL-scan: http://repozytorium.nifc.pl/skany/pl-kk-nut--i-2
!!!ONB-nifc: skany: C: 0043-0044; A: 0146-0147; T: 0249-0250; B: 0348;
!!!AIN: 1 alto 1 bass 1 soprn 1 tenor
!!!key: e:phr
**kern	**text	**kern	**text	**kern	**text	**kern	**text
*part4	*part4	*part3	*part3	*part2	*part2	*part1	*part1
*staff4	*staff4	*staff3	*staff3	*staff2	*staff2	*staff1	*staff1
*I"BASVS	*	*I"TENOR	*	*I"ALTVS	*	*I"DISCANTVS	*
*I'B	*	*I'T	*	*I'A	*	*I'S	*
*ICvox	*	*ICvox	*	*ICvox	*	*ICvox	*
*Ibass	*	*Itenor	*	*Ialto	*	*Isoprn	*
*clefF3	*	*clefC4	*	*clefC3	*	*clefC3	*
*e:phr	*	*e:phr	*	*e:phr	*	*e:phr	*
*k[]	*	*k[]	*	*k[]	*	*k[]	*
*M2/1	*	*M2/1	*	*M2/1	*	*M2/1	*
*met(c|)	*	*met(c|)	*	*met(c|)	*	*met(c|)	*
=1	=1	=1	=1	=1	=1	=1	=1
1.A	Et	0r	.	0e	Et	0r	.
2G/	e-	.	.	.	.	.	.
=2	=2	=2	=2	=2	=2	=2	=2
2F/	-xul-	2r	.	1d	e-	0r	.
2F/	-ta-	1A	Et	.	.	.	.
1E	-vit	.	.	0e	-xul-	.	.
.	.	2G/	e-	.	.	.	.
=3	=3	=3	=3	=3	=3	=3	=3
1.c	.	2A/	-xul-	.	.	2r	.
.	.	2A/	-ta-	.	.	1a	Et
.	.	1E	-vit	1e	-ta-	.	.
2B\	.	.	.	.	.	2g\	e-
=4	=4	=4	=4	=4	=4	=4	=4
1A	.	2r	.	00.e	-vit	1a	-xul-
.	.	2A/	ſpi-	.	.	.	.
2G/	.	2B/	-ri-	.	.	1e	-ta-
1A	.	1c	-tus	.	.	.	.
=5	=5	=5	=5	=5	=5	=5	=5
.	.	.	.	.	.	1A	-vit
4G/	.	4B/	.	.	.	.	.
4F/	.	4A/	.	.	.	.	.
0E	.	2G/	.	.	.	1B	ſpi-
.	.	1A	me-	.	.	.	.
=6	=6	=6	=6	=6	=6	=6	=6
.	.	.	.	.	.	1B	-ri-
.	.	2G/	.	.	.	.	.
2r	.	1A	.	.	.	1c	-tus
1A	ſpi-	.	.	.	.	.	.
=7	=7	=7	=7	=7	=7	=7	=7
.	.	1E	-us	0e	ſpi-	1B	me-
2G/	-ri-	.	.	.	.	.	.
1.c	-tus	2r	.	.	.	0A	-(us)
.	.	1A	ſpi-	.	.	.	.
=8	=8	=8	=8	=8	=8	=8	=8
.	.	.	.	0e	-ri-	.	.
2B\	.	2G/	-ri-	.	.	.	.
2A\	me-	2.c\	-tus	.	.	2r	.
2G\	-us	.	.	.	.	2G/	ſpi-
.	.	4B/	.	.	.	.	.
=9	=9	=9	=9	=9	=9	=9	=9
2.F/	.	2A/	.	1d	-tus	2A/	-ri-
.	.	4G/	.	.	.	2B/	-tus
8E/	.	4F/	.	.	.	.	.
8D/	.	.	.	.	.	.	.
*	*	*	*	*lig	*	*	*
!	!	!	!	!LO:N:vis=0	!	!	!
2C/	.	2E/	.	1e	me-	2.c/	.
*	*	*custos:D	*	*	*	*	*
1c\	.	2C/	.	.	.	.	.
.	.	.	.	.	.	4B/	.
!	!	!LO:LB:g=original	!	!	!	!	!
=10	=10	=10	=10	=10	=10	=10	=10
!	!	!	!	!LO:N:vis=0	!	!	!
.	.	1D	.	1f	.	2A/	.
*custos:A	*	*	*	*	*	*	*
2B\	.	.	.	.	.	4G/	.
.	.	.	.	.	.	4F/	.
*	*	*	*	*Xlig	*	*	*
!LO:LB:g=original	!	!	!	!	!	!	!
2c\	.	2C/	.	2e\	.	2G/	.
2.A/	.	2.c'\	me-	2.f\	.	4F/	.
.	.	.	.	.	.	4G/	.
=11	=11	=11	=11	=11	=11	=11	=11
.	.	.	.	.	.	4A/	.
*	*	*	*	*	*	*custos:c	*
4G/	.	4B/	-us	4e\	.	4B/	.
!	!	!	!	!	!	!LO:LB:g=original	!
4F/	.	4A/	.	1e	.	1c	me-
4E/	.	4G/	.	.	.	.	.
1F	.	1A	.	.	.	.	.
.	.	.	.	2d/	.	4B/	.
.	.	.	.	.	.	4A/	.
=12	=12	=12	=12	=12	=12	=12	=12
0E	.	0B	.	0e	-us	2G/	.
.	.	.	.	.	.	1A	.
.	.	.	.	.	.	2G/	-us
=13	=13	=13	=13	=13	=13	=13	=13
2r	.	1A	.	1.c	.	0A	.
2A\	in	.	.	.	.	.	.
2A\	de-	2r	.	.	.	.	.
2A\	-o	2e\	in	4B/	.	.	.
.	.	.	.	4A/	.	.	.
=14	=14	=14	=14	=14	=14	=14	=14
2G\	ſa-	2e\	De-	2B/	.	0r	.
2A\	-lu-	2e\	-o	2A/	.	.	.
2B\	-ta-	2d\	ſa-	2r	.	.	.
1A	-ri	1c	-lu-	2e\	in	.	.
=15	=15	=15	=15	=15	=15	=15	=15
.	.	.	.	2e\	de-	0r	.
*	*	*	*	*custos:d	*	*	*
4G/	.	4B/	-ta-	2e\	-o	.	.
4F/	.	4A/	-ri	.	.	.	.
!	!	!	!	!LO:LB:g=original	!	!	!
2.G/	.	2.B/	.	2d/	ſa-	.	.
.	.	.	.	2e/	-lu-	.	.
8F/	.	8A/	.	.	.	.	.
8G/	me-	8B/	.	.	.	.	.
=16	=16	=16	=16	=16	=16	=16	=16
4A/	-o	2c\	.	2f\	-ta-	1a	in
4G/	.	.	.	.	.	.	.
4F/	.	1B	.	1e	-ri	.	.
4E/	.	.	.	.	.	.	.
1F	.	.	.	.	.	2a\	De-
.	.	2A/	.	2d/	.	2a\	-o
=17	=17	=17	=17	=17	=17	=17	=17
1E	.	2B/	.	0e	me-	2.g\	ſa-
.	.	2.c\	.	.	.	.	.
.	.	.	.	.	.	4f\	-lu-
1AA	.	.	.	.	.	2e\	-ta-
.	.	4B/	me-	.	.	.	.
.	.	4A/	.	.	.	2.f\	-ri
.	.	4G/	-o	.	.	.	.
=18	=18	=18	=18	=18	=18	=18	=18
1C	me-	2A/	.	1c	-o	.	.
.	.	.	.	.	.	4e\	me-
.	.	2E/	.	.	.	1e	.
*	*	*	*	*	*ij	*	*
1D	-o	1F	.	1A	me-	.	.
.	.	.	.	.	.	2d/	.
=19	=19	=19	=19	=19	=19	=19	=19
*lig	*	*lig	*	*	*	*	*
!	!	!LO:N:vis=0	!	!	!	!	!
0AA	.	1E	.	1.c	.	00e	-o
!	!	!LO:N:vis=0.	!	!	!	!	!
.	.	1.A	.	.	.	.	.
.	.	.	.	4B/	.	.	.
.	.	.	.	4A/	.	.	.
*	*	*Xlig	*	*	*	*	*
=20	=20	=20	=20	=20	=20	=20	=20
*custos:F	*	*	*	*	*	*	*
!	!	!	!	!LO:N:vis=00	!	!	!
0E	.	.	.	0B	-o	.	.
*	*	*	*	*	*Xij	*	*
.	.	4G/	.	.	.	.	.
.	.	4F/	.	.	.	.	.
*	*	*custos:e	*	*	*	*	*
!	!	!LO:N:vis=00	!	!	!	!	!
.	.	1G	.	.	.	.	.
!LO:LB:g=original	!	!LO:LB:g=original	!	!	!	!	!
*Xlig	*	*	*	*	*	*	*
=21||	=21||	=21||	=21||	=21||	=21||	=21||	=21||
*yyM2/1	*	*yyM2/1	*	*yyM2/1	*	*yyM2/1	*
1r	.	1.e	Qui-	0r	.	1A	Qui-
1A	Qui-	.	.	.	.	1.c	-a
.	.	2e\	-a	.	.	.	.
=22	=22	=22	=22	=22	=22	=22	=22
1.c	-a	1e	fe-	1A	Qui-	.	.
.	.	.	.	.	.	2B/	fe-
.	.	1e	-cit	1.c	-a	2A/	.
2B\	.	.	.	.	.	2G/	-cit
=23	=23	=23	=23	=23	=23	=23	=23
2A\	fe-	1r	.	.	.	1F	mi-
2G\	-cit	.	.	2B/	.	.	.
*	*	*	*	*	*	*lig	*
!	!	!	!	!	!	!LO:N:vis=0	!
2F/	.	0A	qui-	2A/	fe-	1c	-hi
2E/	mi-	.	.	2G/	-cit	.	.
=24	=24	=24	=24	=24	=24	=24	=24
!	!	!	!	!	!	!LO:N:vis=0	!
2.D/	-hi	.	.	2F/	mi-	1d	.
.	.	.	.	2F/	-(hi)	.	.
4C/	.	.	.	.	.	.	.
*	*	*	*	*	*	*Xlig	*
1AA	ma-	1A	-a	2E/	ma-	2.c/	mag-
.	.	.	.	1e	.	.	.
.	.	.	.	.	.	8B/	.
.	.	.	.	.	.	8A/	.
=25	=25	=25	=25	=25	=25	=25	=25
*	*	*	*	*	*	*custos:A	*
1E	-gna	1G	fe-	.	.	1B	.
.	.	.	.	2e\	-gna	.	.
!	!	!	!	!	!	!LO:LB:g=original	!
2F/	qui	1.A	-cit	2c/	mi-	1A	-na
2D/	po-	.	.	1d	-hi	.	.
=26	=26	=26	=26	=26	=26	=26	=26
1A	-tens	.	.	.	.	2r	.
.	.	2A/	mi-	2c/	ma-	2e\	qui
0D	.	2A/	-hi	2d/	.	2g\	.
.	.	2A/	ma-	2A/	-gna	2d/	po-
=27	=27	=27	=27	=27	=27	=27	=27
.	.	1A	-g(n)a	1d	q(ui)	1f	-tens
1AA	eſt	1A	q(ui)	1c	po-	0e	.
=28	=28	=28	=28	=28	=28	=28	=28
*	*	*	*	*custos:A	*	*	*
1E	.	1G	po-	1B	-te(n)s	.	.
!	!	!	!	!LO:LB:g=original	!	!	!
2.F/	.	0A	-tens	2A/	.	2c/	eſt
.	.	.	.	1c\	.	2f\	.
8E/	.	.	.	.	.	.	.
8D/	.	.	.	.	.	.	.
=29	=29	=29	=29	=29	=29	=29	=29
2C/	.	.	.	.	.	2e\	.
2F/	.	.	.	2d/	eſt	1a	.
1E	.	1B	eſt	1e	.	.	.
.	.	.	.	.	.	2g\	.
=30	=30	=30	=30	=30	=30	=30	=30
1AA	.	1r	.	2r	.	0a	.
.	.	.	.	2e\	et	.	.
2r	.	0.A	et	2f\	ſan-	.	.
1D	et	.	.	2d\	-ctu(m)	.	.
=31	=31	=31	=31	=31	=31	=31	=31
.	.	.	.	2f\	.	2r	.
2C/	ſan-	.	.	2.e\	.	2e\	et
1D	-ctum	.	.	.	.	2f\	ſan-
.	.	.	.	4d\	no-	.	.
.	.	.	.	1d	.	2d/	-ctu(m)
=32	=32	=32	=32	=32	=32	=32	=32
1AA	.	0A	ſan-	.	.	2f\	.
.	.	.	.	2c/	-men	2.e\	no-
1D	.	.	.	2.d/	.	.	.
.	.	.	.	.	.	4d/	-m(en)
.	.	.	.	.	.	1d	.
.	.	.	.	4c/	.	.	.
=33	=33	=33	=33	=33	=33	=33	=33
1E	no-	1G	-ctu(m)	4B/	.	.	.
.	.	.	.	4A/	.	.	.
.	.	.	.	1G	e-	2c/	e-
*custos:E	*	*	*	*	*	*	*
1D	-me(n)	1A	no-	.	.	1.d	-ius
.	.	.	.	2F/	.	.	.
!LO:LB:g=original	!	!	!	!	!	!	!
=34	=34	=34	=34	=34	=34	=34	=34
1G	e-	1B	-m(en)	2.G/	-ius	.	.
.	.	.	.	.	.	1g	.
.	.	.	.	4A/	.	.	.
1E	.	1G	.	2B/	.	.	.
.	.	.	.	2.c/	.	1e	no-
=35	=35	=35	=35	=35	=35	=35	=35
1C	.	2.E/	e-	.	.	.	.
.	.	.	.	4B/	.	.	.
.	.	.	.	4G/	.	2c/	-me(n)
.	.	4F/	.	4A/	.	.	.
2BB/	.	2G/	.	2B/	.	2d/	.
2AA/	.	2.A/	-ius	1.c	.	2.f\	.
=36	=36	=36	=36	=36	=36	=36	=36
1C	-ius	.	.	.	.	.	.
.	.	4G/	.	.	.	4e\	e-
.	.	4F/	.	.	.	1e	.
.	.	4E/	.	.	.	.	.
1D	.	1F	.	1A	.	.	.
.	.	.	.	.	.	2d/	.
=37	=37	=37	=37	=37	=37	=37	=37
*	*	*custos:A	*	*custos:e	*	*	*
!LO:N:vis=00	!	!LO:N:vis=00	!	!LO:N:vis=00	!	!LO:N:vis=00	!
0AA	.	0E	.	0A	.	0e	-ius
!LO:LB:g=original	!	!LO:LB:g=original	!	!LO:LB:g=original	!	!	!
=38||	=38||	=38||	=38||	=38||	=38||	=38||	=38||
*yyM2/1	*	*yyM2/1	*	*yyM2/1	*	*yyM2/1	*
!	!	!	!	!	!	!LO:TX:a:t=Fecit po&colon;\ntentia(m)\ntacet.	!
1.A	Fe-	1r	.	0r	.	0ryy	.
.	.	1A	Fe-	.	.	.	.
2A\	-cit	.	.	.	.	.	.
=39	=39	=39	=39	=39	=39	=39	=39
1G	po-	1B	-cit	0e	Fe-	0ryy	.
1A	-ten-	1c	.	.	.	.	.
=40	=40	=40	=40	=40	=40	=40	=40
1F	-ti-	1A	po-	1d	-cit	0ryy	.
1E	-a(m)	2B\	.	1e	po-	.	.
.	.	1c	.	.	.	.	.
=41	=41	=41	=41	=41	=41	=41	=41
2r	.	.	.	1.e	-ten-	0ryy	.
2A\	.	4B/	-ten-	.	.	.	.
.	.	4A/	.	.	.	.	.
2B\	in	2G/	.	.	.	.	.
1c	bra-	1A	.	2e\	-ti-	.	.
=42	=42	=42	=42	=42	=42	=42	=42
.	.	.	.	1e	-a(m)	0ryy	.
2.B\	-chi-	2G/	-ti-	.	.	.	.
.	.	2A/	-a(m)	1e	in	.	.
4A\	-o	.	.	.	.	.	.
1A	.	1c	in	.	.	.	.
=43	=43	=43	=43	=43	=43	=43	=43
.	.	.	.	1.e	bra-	0ryy	.
4G\	ſu-	4B\	.	.	.	.	.
4F\	-o	4A\	.	.	.	.	.
2G\	.	2B\	bra-	.	.	.	.
2A\	.	2c\	-chi-	2e\	-chi-	.	.
=44	=44	=44	=44	=44	=44	=44	=44
4D/	.	1d	-o	1f	-o	0ryy	.
4E/	.	.	.	.	.	.	.
4F/	.	.	.	.	.	.	.
4G/	.	.	.	.	.	.	.
4A\	.	1c	.	2e\	.	.	.
*custos:F	*	*	*	*	*	*	*
4B\	.	.	.	.	.	.	.
!LO:LB:g=original	!	!	!	!	!	!	!
2.A\	.	.	.	2.f\	.	.	.
=45	=45	=45	=45	=45	=45	=45	=45
.	.	2A/	.	.	.	0ryy	.
4G/	.	.	.	4e\	.	.	.
4F/	.	1c	.	1e	ſu-	.	.
4E/	.	.	.	.	.	.	.
1F	.	.	.	.	.	.	.
.	.	4B/	.	2d/	.	.	.
.	.	4A/	.	.	.	.	.
=46	=46	=46	=46	=46	=46	=46	=46
2E/	.	2G/	ſu-	2e\	.	0ryy	.
2F/	.	1A	-o	2c/	-o	.	.
2D/	.	.	.	1B	.	.	.
2E/	.	2G/	.	.	.	.	.
=47	=47	=47	=47	=47	=47	=47	=47
2AA/	.	1c	.	1r	.	0ryy	.
1A	diſ-	.	.	.	.	.	.
.	.	1B	.	1e	diſ-	.	.
2G/	-per-	.	.	.	.	.	.
=48	=48	=48	=48	=48	=48	=48	=48
1c	-ſit	2r	.	2.e\	-per-	0ryy	.
.	.	1A	diſ-	.	.	.	.
.	.	.	.	4e\	-ſit	.	.
1B	.	.	.	2e\	ſu-	.	.
.	.	2G/	-per-	2e\	-per-	.	.
=49	=49	=49	=49	=49	=49	=49	=49
*	*	*custos:A	*	*	*	*	*
2.A\	ſu-	1c	-ſit	2e\	-bos	0ryy	.
.	.	.	.	2e\	.	.	.
4G\	.	.	.	.	.	.	.
!	!	!LO:LB:g=original	!	!	!	!	!
2F/	.	2A/	ſu-	0d	me(n)-	.	.
1G	-per-	2.B/	-per-	.	.	.	.
=50	=50	=50	=50	=50	=50	=50	=50
.	.	.	.	.	.	0ryy	.
.	.	4A/	.	.	.	.	.
2F/	.	1d	-bos	.	.	.	.
1E	-bos	.	.	1e	-te	.	.
.	.	2c\	.	.	.	.	.
=51	=51	=51	=51	=51	=51	=51	=51
*	*	*	*	*custos:d	*	*	*
1D	.	2.d\	.	1f	cor-	0ryy	.
.	.	4c/	.	.	.	.	.
!	!	!	!	!LO:LB:g=original	!	!	!
2r	.	4B/	men-	1d	-dis	.	.
.	.	4A/	.	.	.	.	.
1G	.	1B	.	.	.	.	.
=52	=52	=52	=52	=52	=52	=52	=52
.	.	.	.	1B	ſu-	0ryy	.
4F/	men-	4A/	.	.	.	.	.
4E/	.	4G/	-te	.	.	.	.
2F/	.	2A/	.	0d	-i	.	.
2.G/	-te	2.B/	.	.	.	.	.
=53	=53	=53	=53	=53	=53	=53	=53
.	.	.	.	.	.	0ryy	.
4A\	.	4A/	cor-	.	.	.	.
2B\	.	1d	-dis	.	.	.	.
1.A	.	.	.	1e	.	.	.
.	.	4c/	.	.	.	.	.
.	.	4B/	.	.	.	.	.
=54	=54	=54	=54	=54	=54	=54	=54
.	.	2c\	.	1f	.	0ryy	.
4G/	cor-	2d\	.	.	.	.	.
*custos:E	*	*	*	*	*	*	*
4F/	.	.	.	.	.	.	.
!LO:LB:g=original	!	!	!	!	!	!	!
2G/	.	2B/	.	2e\	.	.	.
2A/	-dis	2.c/	ſu-	2.f\	.	.	.
=55	=55	=55	=55	=55	=55	=55	=55
1E	ſu-	.	.	.	.	0ryy	.
.	.	4B/	.	4e\	ſu-	.	.
.	.	1B	.	1e	.	.	.
1F	-i	.	.	.	.	.	.
.	.	2A/	.	2d/	-i	.	.
=56	=56	=56	=56	=56	=56	=56	=56
!LO:N:vis=00	!	!LO:N:vis=00	!	!LO:N:vis=00	!	!	!
0E	.	0B	-i	0e	.	0ryy	.
*	*	*	*	*	*	*clefC2	*
=57||	=57||	=57||	=57||	=57||	=57||	=57||	=57||
*yyM2/1	*	*yyM2/1	*	*yyM2/1	*	*yyM2/1	*
0r	.	0r	.	1A	E-	1.a	E-
.	.	.	.	2c/	-ſu-	.	.
.	.	.	.	2c/	-ri-	2g\	-ſu-
=58	=58	=58	=58	=58	=58	=58	=58
0r	.	1r	.	1d	-en-	2f\	-ri-
.	.	.	.	.	.	2f\	-en-
.	.	1.A	E-	1c	-tes	2e/	-tes
.	.	.	.	.	.	2.f/	.
=59	=59	=59	=59	=59	=59	=59	=59
0D	Im-	.	.	1r	.	.	.
.	.	.	.	.	.	4e/	.
.	.	2G/	-ſu-	.	.	1e	.
.	.	2F/	-ri-	1A	im-	.	.
*	*	*custos:E	*	*	*	*	*
.	.	2F/	-en-	.	.	2d/	.
!	!	!LO:LB:g=original	!	!	!	!	!
=60	=60	=60	=60	=60	=60	=60	=60
0C	-ple-	2E/	-tes	1c	-ple-	1e	.
.	.	2G/	im-	.	.	.	.
.	.	1c	-ple-	1G	-vit	2r	.
.	.	.	.	.	.	2e/	im-
=61	=61	=61	=61	=61	=61	=61	=61
*	*	*lig	*	*	*	*	*
!	!	!LO:N:vis=0	!	!	!	!	!
0D	-vit	1A	-vit	2.d/	.	1f	-ple-
.	.	.	.	4c/	bo-	.	.
!	!	!LO:N:vis=0	!	!	!	!	!
.	.	1d	.	2B/	.	1f	-vit
.	.	.	.	2A/	.	.	.
*	*	*Xlig	*	*	*	*	*
=62	=62	=62	=62	=62	=62	=62	=62
00E	bo-	2B/	.	1.G	-nis	2.e/	.
.	.	1e	.	.	.	.	.
.	.	.	.	.	.	4f/	.
.	.	.	.	.	.	4g\	bo-
.	.	.	.	.	.	4a\	.
.	.	2d\	bo-	1g	.	2.b\	.
=63	=63	=63	=63	=63	=63	=63	=63
.	.	2c\	.	.	.	.	.
.	.	.	.	.	.	4a\	.
.	.	4B/	.	2f\	.	1a	-nis
.	.	4A/	.	.	.	.	.
.	.	1B	-nis	1e	.	.	.
.	.	.	.	.	.	2g\	.
=64	=64	=64	=64	=64	=64	=64	=64
*	*	*	*	*custos:A	*	*	*
*	*	*	*	*	*	*lig	*
!	!	!	!	!	!	!LO:N:vis=0	!
00D	-nis	1d	.	2r	.	1a	.
!	!	!	!	!LO:LB:g=original	!	!	!
.	.	.	.	2A/	et	.	.
!	!	!	!	!	!	!LO:N:vis=0	!
.	.	2r	.	2B/	di-	1f	.
.	.	2A/	et	2A/	-vi-	.	.
*	*	*	*	*	*	*Xlig	*
=65	=65	=65	=65	=65	=65	=65	=65
.	.	2B/	di-	2.d\	-tes	2r	.
.	.	2A/	-vi-	.	.	2A/	et
.	.	.	.	4e\	.	.	.
.	.	2.d\	-tes	2f\	.	2B/	.
.	.	.	.	2d\	.	2A/	di-
.	.	4e\	.	.	.	.	.
=66	=66	=66	=66	=66	=66	=66	=66
2r	.	2f\	.	2d\	di-	2.d/	-vi-
1D	et	2f\	.	2d\	-mi-	.	.
.	.	.	.	.	.	4e/	-tes
*	*	*	*	*	*	*custos:B	*
.	.	2d\	.	1.A	-ſit	2f/	.
!	!	!	!	!	!	!LO:LB:g=original	!
2D/	di-	2.f\	.	.	.	4d/	di-
.	.	.	.	.	.	4e/	.
=67	=67	=67	=67	=67	=67	=67	=67
1D	-vi-	.	.	.	.	4f/	-mi-
.	.	4e\	.	.	.	4g/	.
.	.	4d\	.	2.f\	.	2.a\	-ſit
.	.	4c\	.	.	.	.	.
1D	-tes	2d\	.	.	.	.	.
.	.	.	.	4e\	i-	4g\	.
.	.	4c\	.	4d/	-na-	1g	.
.	.	4B\	.	4c/	.	.	.
=68	=68	=68	=68	=68	=68	=68	=68
1D	di-	1A	.	1d	.	.	.
.	.	.	.	.	.	2f/	i-
0C	-mi-	2r	.	0e	.	1.g	-na-
.	.	2c\	di-	.	.	.	.
=69	=69	=69	=69	=69	=69	=69	=69
.	.	2c\	-mi-	.	.	.	.
*	*	*custos:B	*	*	*	*	*
.	.	2c\	-ſit	.	.	4f/	-nes
.	.	.	.	.	.	4e/	.
!	!	!LO:LB:g=original	!	!	!	!	!
1D	-ſit	2B/	i-	1d	-nes	1f	.
.	.	1A	-na-	.	.	.	.
=70	=70	=70	=70	=70	=70	=70	=70
1E	i-	.	.	2B/	.	0e	.
.	.	4G/	.	2B/	.	.	.
.	.	4F/	.	.	.	.	.
1C	-na-	2G/	-nes	2.c/	.	.	.
.	.	2G/	.	.	.	.	.
.	.	.	.	4d/	.	.	.
=71	=71	=71	=71	=71	=71	=71	=71
1AA	-nes	2.c\	.	1e	.	2r	.
.	.	.	.	.	.	2c/	di-
.	.	4B/	.	.	.	.	.
2r	.	4A/	.	2c/	.	2.f/	-mi-
.	.	4G/	.	.	.	.	.
*	*ij	*	*	*	*	*	*
2D/	ed	2A/	.	2d/	.	.	.
.	.	.	.	.	.	4e/	-ſit
=72	=72	=72	=72	=72	=72	=72	=72
2.F/	di-	4D/	i-	2r	.	2d/	.
.	.	4E/	-na-	.	.	.	.
.	.	4F/	.	2c/	di-	2c/	.
4E/	-vi-	4G/	.	.	.	.	.
2D/	-tes	4A/	.	2.f\	-mi-	2d/	i-
.	.	4B/	.	.	.	.	.
2C/	di-	2.A/	.	.	.	2e/	-na-
.	.	.	.	4e\	.	.	.
=73	=73	=73	=73	=73	=73	=73	=73
2F/	-mi-	.	.	2d/	-ſit	2f/	.
.	.	4G/	.	.	.	.	.
*	*	*	*	*custos:A	*	*	*
2C/	-sit	4F/	.	2c/	.	1e	.
.	.	4E/	.	.	.	.	.
!	!	!	!	!LO:LB:g=original	!	!	!
2D/	i-	1F	-nes	2A/	i-	.	.
2D/	-na-	.	.	2B/	-na-	2d/	.
=74	=74	=74	=74	=74	=74	=74	=74
00AA	-nes	00E	.	1.c	.	00e	-nes
*	*Xij	*	*	*	*ij	*	*
.	.	.	.	2A/	-nes	.	.
=75	=75	=75	=75	=75	=75	=75	=75
*custos:F	*	*	*	*	*	*	*
!	!	!	!	!LO:N:vis=00	!	!	!
.	.	.	.	0A	.	.	.
!LO:LB:g=original	!	!	!	!	!	!	!
=76||	=76||	=76||	=76||	=76||	=76||	=76||	=76||
*yyM2/1	*	*yyM2/1	*	*yyM2/1	*	*yyM2/1	*
!	!	!	!	!LO:TX:a:t=Sicut loquutus est.\nIta alios audit.	!	!	!
0r	.	1r	.	0ryy	.	1e	Si-
.	.	0A	Si-	.	.	2e/	-cut
.	.	.	.	.	.	2e/	lo-
=77	=77	=77	=77	=77	=77	=77	=77
0r	.	.	.	0ryy	.	1c	-quu-
*	*	*	*	*	*	*custos:e	*
.	.	1G	-cut	.	.	1d	-tus
!	!	!	!	!	!	!LO:LB:g=original	!
=78	=78	=78	=78	=78	=78	=78	=78
0A	Si-	2c\	lo-	0ryy	.	2e/	eſt
.	.	2A/	-qu-	.	.	1e	.
.	.	1c	-u-	.	.	.	.
.	.	.	.	.	.	2c/	.
=79	=79	=79	=79	=79	=79	=79	=79
1G	-cut	1B	-tus	0ryy	.	1d	.
1.c	lo-	0A	e(st)	.	.	1e	.
=80	=80	=80	=80	=80	=80	=80	=80
.	.	.	.	0ryy	.	0e	.
2A\	-qu-	.	.	.	.	.	.
1c	-tus	2r	.	.	.	.	.
.	.	1A	ad	.	.	.	.
=81	=81	=81	=81	=81	=81	=81	=81
1B	e(st)	.	.	0ryy	.	1d	.
*	*	*custos:c	*	*	*	*	*
.	.	2G/	pa-	.	.	.	.
!	!	!LO:LB:g=original	!	!	!	!	!
2r	.	1c	-tres	.	.	1.e	ad
1A	ad	.	.	.	.	.	.
=82	=82	=82	=82	=82	=82	=82	=82
.	.	1B	.	0ryy	.	.	.
2G/	p(a)-	.	.	.	.	2e/	pa-
2c\	-(t)res	2A/	.	.	.	1e	-tres
2.A\	.	2.c'\	no-	.	.	.	.
=83	=83	=83	=83	=83	=83	=83	=83
.	.	.	.	0ryy	.	1e	.
4G/	.	4B\	-ſtros	.	.	.	.
2E/	no-	2G/	.	.	.	.	.
2F/	.	2A/	.	.	.	1d	.
2G\	-ſtros	2.B/	.	.	.	.	.
=84	=84	=84	=84	=84	=84	=84	=84
2A\	.	.	.	0ryy	.	2c/	no-
.	.	4A/	.	.	.	.	.
2F/	.	1A	.	.	.	2A/	.
1E	.	.	.	.	.	1B	.
.	.	2G/	.	.	.	.	.
=85	=85	=85	=85	=85	=85	=85	=85
1F	.	2.A/	.	0ryy	.	4A/	.
.	.	.	.	.	.	4B/	-ſtros
.	.	.	.	.	.	4c/	.
.	.	4B/	.	.	.	4d/	.
2E/	.	4c\	.	.	.	4e/	.
.	.	4d\	.	.	.	4f/	.
2C/	.	4e\	.	.	.	4g/	.
.	.	4c\	.	.	.	4a/	.
=86	=86	=86	=86	=86	=86	=86	=86
2G/	.	4d\	.	0ryy	.	2b\	.
.	.	4c\	.	.	.	.	.
2F/	.	4B\	.	.	.	1a	.
.	.	4A\	.	.	.	.	.
1E	.	1B	.	.	.	.	.
.	.	.	.	.	.	2g/	.
=87	=87	=87	=87	=87	=87	=87	=87
2r	.	2A/	.	0ryy	.	1a	.
1A	A-	1c	.	.	.	.	.
.	.	.	.	.	.	2r	.
2A\	-bra-	2c\	.	.	.	1e	A-
=88	=88	=88	=88	=88	=88	=88	=88
2A\	-hae	2.c\	.	0ryy	.	.	.
2A\	et	.	.	.	.	2e/	-bra-
.	.	4A/	.	.	.	.	.
2A\	ſe-	2c\	.	.	.	2e/	-ha(m)
2A\	-mi-	2c\	.	.	.	2e/	et
=89	=89	=89	=89	=89	=89	=89	=89
2G\	-(ni)	2B\	.	0ryy	.	2e/	ſe-
*	*	*	*	*	*	*custos:d	*
2A\	.	2c\	.	.	.	2e/	-mi-
!	!	!	!	!	!	!LO:LB:g=original	!
2.B\	e-	2G/	.	.	.	2d/	-ni
.	.	1d	A-	.	.	2G/	e-
8A\	-ius	.	.	.	.	.	.
8G\	.	.	.	.	.	.	.
=90	=90	=90	=90	=90	=90	=90	=90
*custos:G	*	*	*	*	*	*	*
2F/	.	.	.	0ryy	.	2A/	-ius
*	*	*custos:d	*	*	*	*	*
!LO:LB:g=original	!	!	!	!	!	!	!
2.B\	in	2d\	-brahae	.	.	2G/	in
!	!	!LO:LB:g=original	!	!	!	!	!
.	.	2d\	et	.	.	2A/	ſae-
4A\	ſae-	.	.	.	.	.	.
1A	-cu-	2d\	ſe-	.	.	2A/	-cu-
=91	=91	=91	=91	=91	=91	=91	=91
.	.	2d\	-mi-	0ryy	.	1B	-la
2G/	-la	2d\	-ni	.	.	.	.
0A	.	1.c	.	.	.	2r	.
*	*	*	*	*	*	*	*ij
.	.	.	.	.	.	1e	et
=92	=92	=92	=92	=92	=92	=92	=92
.	.	.	.	0ryy	.	.	.
.	.	4B/	.	.	.	2e/	se-
.	.	4A/	.	.	.	.	.
2r	.	2G/	.	.	.	2e/	-mi-
1c	A-	2.A/	.	.	.	2e/	-ni
=93	=93	=93	=93	=93	=93	=93	=93
.	.	.	.	0ryy	.	2e/	e-
.	.	4B/	e-	.	.	.	.
2A\	-bra-	4c\	.	.	.	2e/	-ius
.	.	4d\	.	.	.	.	.
1c	-hae	2e\	.	.	.	2e/	in
.	.	2A/	-ius	.	.	2e/	sae-
=94	=94	=94	=94	=94	=94	=94	=94
1B	et	2r	.	0ryy	.	1d	-cu-
.	.	1d	in	.	.	.	.
1A	se-	.	.	.	.	1e	-la
*	*	*	*	*	*	*	*Xij
.	.	2c\	.	.	.	.	.
=95	=95	=95	=95	=95	=95	=95	=95
1D	-mi-	2d\	ſae-	0ryy	.	1f	in
.	.	2A/	-cu-	.	.	.	.
1.G	-ni	2B/	-la	.	.	1d	ſae-
.	.	2.d\	.	.	.	.	.
=96	=96	=96	=96	=96	=96	=96	=96
.	.	.	.	0ryy	.	2.B/	-cu-
.	.	4c\	.	.	.	.	.
2G/	in	4B/	.	.	.	.	.
.	.	4A/	.	.	.	4c/	-la
2G/	sae-	2B/	.	.	.	4d/	.
.	.	.	.	.	.	4e/	.
*	*	*	*ij	*	*	*	*
2.A\	.	2.c/	in	.	.	2.f/	.
=97	=97	=97	=97	=97	=97	=97	=97
.	.	.	.	0ryy	.	.	.
4G/	.	4B/	sae-	.	.	4e/	ſae-
4F/	.	4A/	.	.	.	1e	.
4E/	.	4G/	-cu-	.	.	.	.
2F/	-cu-	2A/	-la	.	.	.	.
2G/	-la	2B/	.	.	.	2d/	-cu-
*	*Xij	*	*Xij	*	*	*	*
=98	=98	=98	=98	=98	=98	=98	=98
*	*	*custos:c	*	*	*	*	*
!	!	!	!	!	!	!LO:N:vis=00	!
4C/	.	2G/	.	0ryy	.	00.e	-la
4D/	.	.	.	.	.	.	.
!	!	!LO:LB:g=original	!	!	!	!	!
4E/	.	2c/	ſae-	.	.	.	.
4F/	.	.	.	.	.	.	.
2G/	.	2B/	.	.	.	.	.
1A	.	1c	.	.	.	.	.
=99	=99	=99	=99	=99	=99	=99	=99
.	.	.	.	0ryy	.	.	.
2G/	.	1B	-cu-	.	.	.	.
1A	.	.	.	.	.	.	.
.	.	2A/	-la	.	.	.	.
=100	=100	=100	=100	=100	=100	=100	=100
*	*	*	*	*	*	*custos:e	*
!LO:N:vis=00	!	!LO:N:vis=00	!	!	!	!	!
0E	.	0B	.	0ryy	.	.	.
!	!	!	!	!	!	!LO:LB:g=original	!
=101||	=101||	=101||	=101||	=101||	=101||	=101||	=101||
*yyM2/1	*	*yyM2/1	*	*yyM2/1	*	*yyM2/1	*
*	*	*	*	*lig	*	*	*
0A	Si-	0r	.	0c	Si-	0e	Si-
=102	=102	=102	=102	=102	=102	=102	=102
0D	-cut	0A	Si-	0d	.	0f	-cut
*	*	*	*	*Xlig	*	*	*
=103	=103	=103	=103	=103	=103	=103	=103
0E	e-	0G	-cut	0B	-cut	0e	e-
=104	=104	=104	=104	=104	=104	=104	=104
*custos:BB	*	*	*	*	*	*	*
1AA	-rat	1A	e-	1c	e-	1e	-rat
!LO:LB:g=original	!	!	!	!	!	!	!
1.D	in	2A/	-rat	1d	-rat	2r	.
.	.	1A\	in	.	.	1f	in
=105	=105	=105	=105	=105	=105	=105	=105
.	.	.	.	1r	.	.	.
2C/	prin-	2A/	prin-	.	.	2e/	prin-
2D/	-ci-	2A/	-ci-	2r	.	2f/	-ci-
2D/	-pi-	2A/	-pi-	1f	in	2d/	-pi-
=106	=106	=106	=106	=106	=106	=106	=106
2AA/	-o	2A/	-o	.	.	1c	-o
2C/	.	1A	et	2e\	prin-	.	.
2D/	.	.	.	2f\	-ci-	2r	.
2E/	.	2G/	.	2e\	-pi-	1c	et
=107	=107	=107	=107	=107	=107	=107	=107
*lig	*	*	*	*	*	*	*
!LO:N:vis=0	!	!	!	!	!	!	!
1F	.	1A	.	2.c/	-o	.	.
.	.	.	.	.	.	4B/	.
.	.	.	.	4d/	.	4A/	.
!LO:N:vis=0	!	!	!	!	!	!	!
1G	.	1B	nu(n)c	4e\	.	4G/	.
.	.	.	.	4f\	.	4A/	.
.	.	.	.	4g\	.	4B/	.
.	.	.	.	4e\	.	4c/	.
*	*	*	*	*custos:f	*	*	*
*Xlig	*	*	*	*	*	*	*
!	!	!	!	!LO:LB:g=original	!	!	!
=108	=108	=108	=108	=108	=108	=108	=108
1D	.	2A/	et	2f\	et	4d/	.
.	.	.	.	.	.	4e/	.
.	.	1A	.	2d/	nunc	4f/	.
.	.	.	.	.	.	4g/	.
2r	.	.	.	4e\	.	2a\	nu(n)c
.	.	.	.	4f\	.	.	.
2E/	.	2G/	ſem-	4g\	et	2.b\	.
.	.	.	.	4e\	.	.	.
=109	=109	=109	=109	=109	=109	=109	=109
2D/	et	2A/	.	2f\	.	.	.
.	.	.	.	.	.	4a\	et
2C/	nu(n)c	2c\	.	2e\	.	1a	ſem-
2D/	et	1B	-per	2f\	ſem-	.	.
2E/	.	.	.	2.e\	-per	2g\	-per
=110	=110	=110	=110	=110	=110	=110	=110
2AA/	.	1r	.	.	.	0a	.
.	.	.	.	4d/	.	.	.
1A	ſ(em)-	.	.	4c/	.	.	.
.	.	.	.	4B/	.	.	.
*	*	*custos:a	*	*	*	*	*
.	.	2r	.	2A/	.	.	.
!	!	!LO:LB:g=original	!	!	!	!	!
1A	-p(er)	1A	et	1e	.	.	.
=111	=111	=111	=111	=111	=111	=111	=111
.	et	.	.	.	.	2r	.
2c\	in	2A/	in	2e\	et	1a	et
2A\	ſae-	2c\	ſae-	2e\	in	.	.
2.c\	-cu-	2c\	-cu-	2e\	ſae-	2a\	in
=112	=112	=112	=112	=112	=112	=112	=112
.	.	2A/	-la	1e	-cu-	2a\	ſae-
4B\	-la	.	.	.	.	.	.
*	*	*	*	*	*	*custos:a	*
4A\	.	2.c\	.	.	.	2a\	-cu-
4G\	.	.	.	.	.	.	.
!	!	!	!	!	!	!LO:LB:g=original	!
4A\	.	.	.	1e	-la	1a	-la
4G\	.	4B/	.	.	.	.	.
4F/	.	4A/	.	.	.	.	.
4E/	.	4G/	.	.	.	.	.
=113	=113	=113	=113	=113	=113	=113	=113
2.F/	.	2.A/	.	1d	ſae-	1a	ſae-
4E/	.	4B/	.	.	.	.	.
*custos:A	*	*	*	*	*	*	*
2C/	.	0c	.	1e	-cu-	1g	-cu-
!LO:LB:g=original	!	!	!	!	!	!	!
2c\	ſae-	.	.	.	.	.	.
=114	=114	=114	=114	=114	=114	=114	=114
2A\	-cu-	.	.	1f	-lo-	1a	-lo-
2F/	-lo-	.	.	.	.	.	.
2G/	-ru(m)	1r	.	2.d/	-ru(m)	2b\	-ru(m)
1F	.	.	.	.	.	2.a\	.
.	.	.	.	8c/	A-	.	.
.	.	.	.	8B/	.	.	.
=115	=115	=115	=115	=115	=115	=115	=115
.	.	1.A	et	4c/	-men	.	.
.	.	.	.	4B/	.	4g\	A-
2C/	A-	.	.	1e	.	4f/	.
.	.	.	.	.	.	4e/	.
1D	-m(en)	.	.	.	.	1f	.
.	.	2A/	in	2d/	.	.	.
=116	=116	=116	=116	=116	=116	=116	=116
2AA/	.	2A/	ſae-	2c/	.	2e/	-me(n)
*	*	*	*	*custos:d	*	*	*
1D	.	2A/	-cu-	2A/	.	1f	.
!	!	!	!	!LO:LB:g=original	!	!	!
.	.	1A	-la	1d	.	.	.
2D/	ſae-	.	.	.	.	2f/	ſae-
=117	=117	=117	=117	=117	=117	=117	=117
2C/	-cu-	1A	ſae-	1r	.	2e/	-cu-
2AA/	-lo-	.	.	.	.	2c/	-lo-
2BB/	-ru(m)	1G	-cu-	2r	.	2d/	-ru(m)
2C/	.	.	.	1c	ſae-	2.e/	A-
=118	=118	=118	=118	=118	=118	=118	=118
2AA/	A-	1A	-lo-	.	.	.	.
.	.	.	.	.	.	4c/	.
2.D/	.	.	.	2A/	-cu-	2.f/	.
.	.	1B	-ru(m)	2d\	-lo-	.	.
4BB/	.	.	.	.	.	4d/	.
2.E/	.	.	.	2G/	-ru(m)	2.g\	.
=119	=119	=119	=119	=119	=119	=119	=119
.	.	1G	A-	0c	A-	.	.
4D/	.	.	.	.	.	4f/	.
4C/	.	.	.	.	.	4e/	.
4BB/	.	.	.	.	.	4d/	.
2C/	.	2E/	.	.	.	2e/	.
2AA/	.	2.A/	.	.	.	2.f/	.
=120	=120	=120	=120	=120	=120	=120	=120
*lig	*	*	*	*lig	*	*	*
!LO:N:vis=0	!	!	!	!LO:N:vis=0	!	!	!
1C	-MEN	.	.	1c	.	.	.
.	.	4G/	.	.	.	4e/	.
.	.	4F/	.	.	.	1e	.
.	.	4E/	.	.	.	.	.
!LO:N:vis=0	!	!	!	!LO:N:vis=0	!	!	!
1D	.	1F	-men.	1A	-men.	.	.
.	.	.	.	.	.	2d/	.
*Xlig	*	*	*	*Xlig	*	*	*
=121	=121	=121	=121	=121	=121	=121	=121
!LO:N:vis=00	!	!LO:N:vis=00	!	!LO:N:vis=00	!	!LO:N:vis=00	!
0AA	.	0E	.	0A	.	0e	-MEN
==	==	==	==	==	==	==	==
*-	*-	*-	*-	*-	*-	*-	*-
!!!system-decoration: [(s1,s2,s3,s4)]
!!!ENC: Andrzej Gręziak
!!!END: 2022-01-11
!!!ENC: Jan Barakat
!!!END: 2022-01-21
